source/img/sprite/phone.svg

<svg width="22" height="22" viewBox="0 0 22 22" fill="none" xmlns="http://www.w3.org/2000/svg">
<path d="M19.3236 20.0443C19.0034 20.6753 18.3438 21.0672 17.6426 20.9904C17.3412 20.9575 17.0402 20.9171 16.7396 20.8693C12.8229 20.2465 9.20304 18.3949 6.39895 15.5797C3.59486 12.7646 1.75046 9.1305 1.1301 5.19831C1.08254 4.89683 1.04236 4.59477 1.00952 4.29242C0.933062 3.58844 1.32346 2.92622 1.95195 2.60473L4.70244 1.19777C5.76693 0.653244 7.05498 1.28842 7.42933 2.42743C7.65638 3.11826 7.92452 3.79805 8.23342 4.4631C8.38821 4.79636 8.5524 5.12412 8.72567 5.44606C9.13588 6.20824 8.85917 7.18583 8.0736 7.54431C6.93267 8.06496 6.66094 9.56938 7.54713 10.4591L11.4995 14.427C12.3857 15.3167 13.8842 15.0439 14.4028 13.8985C14.7796 13.0663 15.8009 12.765 16.6118 13.1807C16.8084 13.2814 17.0071 13.3788 17.2078 13.4728C17.9681 13.8287 18.7478 14.1308 19.5413 14.3784C20.6964 14.7389 21.3521 16.0475 20.8029 17.1296L19.3236 20.0443Z" stroke="#2D383F" stroke-linecap="round" stroke-linejoin="round"/>
</svg>

<svg width="22" height="22" fill="none" xmlns="http://www.w3.org/2000/svg"><path d="M19.32 20.04a1.7 1.7 0 0 1-1.68.95l-.9-.12A18.75 18.75 0 0 1 1.13 5.2l-.12-.9a1.7 1.7 0 0 1 .94-1.7L4.7 1.2c1.07-.55 2.35.09 2.73 1.23a18.67 18.67 0 0 0 1.3 3.02c.4.76.13 1.74-.66 2.1a1.8 1.8 0 0 0-.52 2.9l3.95 3.98a1.8 1.8 0 0 0 2.9-.53 1.6 1.6 0 0 1 2.21-.72 18.78 18.78 0 0 0 2.93 1.2c1.16.36 1.81 1.67 1.26 2.75l-1.48 2.91Z" stroke="#2D383F" stroke-linecap="round" stroke-linejoin="round"/></svg>
